X:1
P:The Swinmark Reel
C:Anselm Lingnau
R:Reel
M:C|
K:A
E2|"A"A2 GA "E"cBAG|"A"BAAG A2 AG|\
 "D"F2 AF "A/C#"EAEC|"Bm"DCB,A, "E7"B,DCB,|
"A"A,2 CE "Bm"Fd"E"BG|"A"BAAG AECE|"D"F2BA "E7"GBEG|"A"A2 "D"AG "A"A2||
ce|"D"faaf bagf|"A/C#"eaae "A"cdec|"Bm"dffd "E7"Bcdf|"A"feed eAce|
"D"faaf bagf|"A/C#"eaae "A"cdec|"Bm"d2 BA "E7"GBEG|"A"A2 "D"AG "A"A2|]
